dist/svg/static/profile-large.svg

<svg xmlns="http://www.w3.org/2000/svg" width="48" height="48" viewBox="0 0 48 48"><g fill="none" stroke="currentColor" stroke-miterlimit="10"><path d="M15.562 41.298a12.559 12.559 0 0 0 7.022 2.202c6.53 0 12-4.902 14.38-12.787"/><path d="M20.804 39.58a18.221 18.221 0 0 0 9.655-5.747c4.25-4.833 4.122-6.763 7.899-7.29M11.613 38.598a25.816 25.816 0 0 0 13.346-6.015c6-5.333 7-9.725 13.083-9.975M10.126 25.75a23.209 23.209 0 0 0 7.583-4.25c4.167-3.333 5.124-5.295 6.833-3.417C28.5 22.431 13.333 30 10.126 30.917"/><path d="M9.642 20.708s4.317-.958 8.484-6.125c4.612-5.719 8.804-2.614 10.25 2.084 1 3.25 2.624 10.5-17.793 18.5"/><path d="M10.792 15.417s5.334-7.884 12.25-7.884 9.923 7.012 9.923 12.823"/><path d="M37.438 19.812C36.124 9.5 30.098 3.5 22.584 3.5a13.572 13.572 0 0 0-10.237 5.07"/></g></svg>

<?xml version="1.0" encoding="UTF-8" standalone="no"?>
<svg width="48px" height="48px" viewBox="0 0 48 48" version="1.1" xmlns="http://www.w3.org/2000/svg" xmlns:xlink="http://www.w3.org/1999/xlink">
    <!-- Generator: sketchtool 46.2 (44496) - http://www.bohemiancoding.com/sketch -->
    <title>profile-large</title>
    <desc>Created with sketchtool.</desc>
    <defs></defs>
    <g id="icons-published" stroke="none" stroke-width="1" fill="none" fill-rule="evenodd">
        <g id="briefing" transform="translate(-576.000000, -1434.000000)"></g>
        <g id="profile-large" stroke="#000000">
            <path d="M15.6,41.3 C17.7,42.7 20.1,43.5 22.6,43.5 C29.1,43.5 34.6,38.6 37,30.7" id="Shape"></path>
            <path d="M20.8,39.6 C24.5,38.7 27.9,36.7 30.5,33.9 C34.7,29.1 34.6,27.1 38.4,26.6 M11.6,38.6 C16.5,37.9 21.2,35.8 24.9,32.6 C30.9,27.3 31.9,22.9 38,22.6 M10.1,25.8 C12.9,24.9 15.4,23.4 17.7,21.6 C21.9,18.3 22.8,16.3 24.5,18.2 C28.5,22.5 13.3,30.1 10.1,31" id="Shape"></path>
            <path d="M9.6,20.7 C9.6,20.7 13.9,19.7 18.1,14.6 C22.7,8.9 26.9,12 28.3,16.7 C29.3,19.9 30.9,27.2 10.5,35.2" id="Shape"></path>
            <path d="M10.8,15.4 C10.8,15.4 16.1,7.5 23,7.5 C29.9,7.5 32.9,14.5 32.9,20.3" id="Shape"></path>
            <path d="M37.4,19.8 C36.1,9.5 30.1,3.5 22.6,3.5 C18.6,3.6 14.9,5.5 12.4,8.6" id="Shape"></path>
        </g>
    </g>
</svg>
